swiss/communes/0176.svg

<?xml version="1.0" encoding="UTF-8" standalone="no"?>
<!-- Created with Inkscape (http://www.inkscape.org/) -->
<svg
   xmlns:svg="http://www.w3.org/2000/svg"
   xmlns="http://www.w3.org/2000/svg"
   version="1.0"
   width="225.13301"
   height="263.70813"
   id="svg2780">
  <defs
     id="defs2782" />
  <g
     transform="translate(-33.87846,-760.97954)"
     id="layer1">
    <path
       d="M 34.947128,762.04821 L 39.001591,932.37345 C 41.897627,1054.0342 250.99229,1054.0342 253.88834,932.37345 L 257.9428,762.04821 L 34.947128,762.04821 z "
       style="fill:#ffffff;fill-opacity:1;fill-rule:evenodd;stroke:#000000;stroke-width:2.13733602;stroke-linecap:butt;stroke-miterlimit:4;stroke-dashoffset:0;stroke-opacity:1"
       id="path3282" />
    <path
       d="M 147.10125,775.83789 C 148.87969,780.73494 157.21126,783.58861 158.63436,791.80127 C 160.07228,800.09946 153.67743,804.08565 149.11222,802.50836 L 149.20032,819.33461 C 151.53734,813.34419 155.64282,809.21017 161.34387,807.08216 C 160.3153,803.43838 159.14747,799.33152 163.44552,794.5612 C 167.74357,789.79089 178.25221,794.82515 183.67436,793.9251 C 181.8024,797.94349 182.24423,805.47244 178.42624,810.35513 C 174.50049,815.37562 165.07289,814.23316 163.01613,808.94228 C 157.46751,811.52588 153.14794,818.205 152.33826,819.19749 C 151.48619,820.24194 149.54039,823.12783 149.54039,826.0303 L 149.54039,848.14369 C 150.92065,846.14673 153.0938,843.88547 154.82646,842.50522 C 154.85583,843.6799 155.02335,848.06338 155.00266,849.2009 C 153.39631,851.09978 152.18891,852.96548 151.12621,855.27988 C 151.18494,856.41052 150.7738,873.31125 150.5976,882.32694 C 154.62088,868.14265 162.83985,848.12915 163.54847,846.55787 C 164.22392,845.06015 165.17645,844.02064 164.9581,842.68142 C 164.72576,841.25645 163.2946,839.18408 163.2117,836.95085 C 159.42786,838.4513 154.4576,836.60055 153.25976,831.68818 C 152.06669,826.79539 159.02065,819.15277 160.13811,814.23825 C 162.95389,818.11605 169.54831,818.42155 172.17415,824.52988 C 174.77579,830.58192 170.74016,833.2798 167.12047,835.56722 C 167.60372,837.70368 167.47028,839.66395 167.51303,841.71231 C 171.41885,836.45561 178.14519,827.46928 179.18773,826.2946 C 180.18728,825.16836 180.28736,824.04118 180.40602,822.55786 C 180.53838,820.90335 180.07586,817.54322 179.13612,814.66525 C 180.34017,814.43031 181.81478,814.01918 183.01883,813.78424 C 184.31098,816.33918 184.10541,820.21562 184.16415,823.03486 C 191.87481,815.80918 193.0878,811.38148 192.96837,806.17149 C 188.98525,805.33269 184.37731,800.96553 186.01353,794.57181 C 187.65159,788.17088 199.17277,786.0598 202.90861,782.97845 C 203.84682,793.59552 210.08622,793.98975 208.90189,800.53223 C 207.72848,807.01442 201.49155,807.78074 196.54684,807.47763 C 196.29572,810.10844 195.69221,812.91544 194.20768,815.19385 C 196.13878,815.0433 198.49496,814.95322 200.5505,815.0972 C 202.45897,810.85094 205.26979,806.79242 211.59441,808.31578 C 217.93964,809.84409 221.27906,822.74656 225.53843,823.97791 C 218.86732,825.77538 214.69156,830.1387 208.04341,830.23271 C 201.45653,830.32587 197.99333,826.03924 199.39569,818.79987 C 194.91249,819.07031 193.77354,817.45387 190.94794,819.95132 C 188.07905,822.48703 179.78457,830.29914 175.00163,836.95484 C 177.89351,835.57096 180.52535,835.4346 183.19469,834.79908 C 183.37234,831.01666 185.40088,827.00686 191.98667,826.57756 C 198.57988,826.14777 203.31882,837.92235 207.455,838.8137 C 201.11175,839.95589 199.73416,846.42446 191.7258,847.93494 C 183.70185,849.44837 181.55915,841.95251 182.2852,837.94114 C 173.68398,839.21817 169.98026,842.24089 165.88753,852.49908 C 161.76451,862.83323 155.74534,877.47887 151.2115,896.03965 C 153.62032,891.51274 156.31985,886.65358 159.14276,882.81132 C 161.9351,879.01067 164.19202,873.80346 164.53679,871.8408 L 168.61189,870.35193 L 168.86108,872.47003 C 168.08496,873.62589 167.44901,876.29091 166.74298,878.20135 C 172.51601,873.81561 173.35537,872.51342 174.81144,866.36566 C 170.74099,866.35081 166.7484,864.65669 167.05603,858.06411 C 167.364,851.46408 177.405,848.35541 179.1296,844.3229 C 180.55481,848.83932 188.28966,852.53254 188.45468,859.17929 C 188.61821,865.76481 184.09897,866.82468 178.92787,867.23656 L 176.83508,872.19946 C 189.4242,865.88999 195.22953,870.68127 204.29461,860.31914 C 200.3088,858.75975 196.35102,853.54576 200.8067,848.29453 C 205.306,842.99191 214.77149,845.34828 219.79128,843.44111 C 219.21057,849.09243 221.77292,857.77685 219.09946,861.4597 C 216.46805,865.08461 209.74195,865.15956 206.57143,861.7314 C 205.23553,864.1273 203.21435,865.52645 201.06859,867.0502 C 209.59374,866.2263 217.43362,867.83199 222.90622,871.49347 C 223.88573,867.5426 226.40361,864.10618 232.82338,864.82277 C 239.25347,865.54052 242.91463,877.66557 244.61598,882.37036 C 239.37921,883.23485 233.96493,887.92491 227.08312,886.27801 C 220.118,884.61118 219.5802,877.61193 221.64921,874.10059 C 215.18355,870.73295 205.76355,869.99515 197.01929,869.60437 C 199.92663,871.45449 201.25548,872.59462 203.01365,875.25233 C 206.52992,873.89324 212.10717,873.35443 215.65184,877.28126 C 219.24054,881.25687 215.48528,893.1672 213.94508,897.809 C 206.76037,895.96981 201.70732,893.67654 198.31817,889.68276 C 194.97268,885.74044 195.84615,878.32091 199.68429,876.28188 C 195.25418,871.45865 193.4529,871.26672 190.3526,871.53768 C 187.24752,871.80905 175.90882,876.11045 172.62289,878.00998 C 174.5699,878.35209 176.80825,879.32708 178.08102,881.06701 C 180.98058,878.2102 186.38163,875.73316 190.80731,880.6291 C 195.23798,885.53056 191.16936,895.81024 191.03878,900.62824 C 183.85407,898.78905 179.50638,900.01078 174.70706,895.40934 C 169.95196,890.85031 172.04815,884.54587 175.75414,882.68304 C 175.79454,882.67935 171.74188,881.09353 169.09885,881.26973 C 166.45581,881.44593 161.69835,887.96542 159.05532,892.72288 C 156.41228,897.48034 154.47405,903.99983 154.29785,909.4621 C 154.12165,914.92437 155.09092,946.54544 156.01713,955.31898 C 156.94334,964.09252 165.52979,973.32254 185.74004,967.09278 C 205.91553,960.87373 213.21616,968.75419 216.9164,971.22102 C 220.61665,973.68785 220.06409,980.993 219.38324,983.29088 C 218.67843,985.66961 218.14982,986.37442 217.97362,981.79316 C 217.79742,977.2119 212.62082,972.19013 211.2112,971.30912 C 209.80159,970.42811 207.77526,969.54709 207.77526,971.48532 C 207.77526,973.42354 209.62538,980.64784 210.8588,983.64328 C 212.09222,986.63872 208.03826,984.25862 206.62994,982.76227 C 205.22032,981.26454 203.4583,974.65696 202.92969,971.66152 C 202.40109,968.66608 195.28835,970.55276 193.23857,970.78051 C 190.85983,971.04481 184.42845,973.24734 184.42845,973.24734 C 184.42845,973.24734 188.23191,975.66256 190.52254,977.07218 C 192.81317,978.4818 194.6454,982.36746 194.9276,985.00129 C 195.1919,987.46812 196.08771,989.85587 197.30633,992.04938 C 198.52495,994.24289 196.42532,993.01849 194.48709,991.78507 C 192.54887,990.55166 190.69874,986.0585 189.81773,983.23927 C 188.93672,980.42003 185.92617,978.00481 183.45934,977.3 C 180.99251,976.59519 174.03251,976.24278 174.03251,976.24278 C 174.03251,976.24278 178.26137,978.79771 180.552,980.55974 C 182.84263,982.32176 183.79037,988.45236 183.43797,990.21438 C 183.08556,991.9764 182.99746,998.49589 183.52607,1000.9627 C 184.05467,1003.4295 183.17366,1003.9581 181.05923,1000.4341 C 178.94481,996.91007 178.94595,992.12331 178.85671,987.65945 C 178.76746,983.19558 175.79454,983.29088 173.1515,981.00024 C 170.50847,978.70961 169.27505,979.41442 167.16062,978.70961 C 165.04619,978.00481 160.81734,975.53797 158.52671,973.95215 C 156.23608,972.36633 153.06444,969.8995 153.06444,969.8995 C 153.06444,969.8995 155.17886,972.98303 158.3505,976.50708 C 161.52214,980.03113 159.49582,985.4053 157.38139,988.22454 C 155.26696,991.04377 154.20975,996.59415 155.09076,998.53238 C 155.97177,1000.4706 156.38058,1004.4897 155.88367,1006.7258 C 155.35506,1009.1045 154.56216,1007.4306 154.29785,1004.9638 C 154.01564,1002.3299 152.62393,1000.3825 151.74292,997.38707 C 150.8619,994.39163 151.03811,990.69137 153.68114,986.19821 C 156.32078,981.71084 154.47405,979.41442 153.06444,978.53341 C 151.65482,977.6524 151.60767,976.85949 147.10125,971.48532 C 142.59483,977.21189 142.54768,978.0048 141.13806,978.88581 C 139.72845,979.76682 137.88172,982.06324 140.52136,986.55061 C 143.16439,991.04377 143.3406,994.74403 142.45958,997.73947 C 141.57857,1000.7349 140.18686,1002.6823 139.90465,1005.3162 C 139.64034,1007.783 138.84744,1009.4569 138.31883,1007.0782 C 137.82192,1004.8421 138.23073,1000.823 139.11174,998.88478 C 139.99275,996.94655 138.93554,991.39617 136.82111,988.57694 C 134.70668,985.7577 132.68036,980.38353 135.852,976.85948 C 139.02364,973.33543 141.13806,970.2519 141.13806,970.2519 C 141.13806,970.2519 137.96642,972.71873 135.67579,974.30455 C 133.38516,975.89037 129.15631,978.35721 127.04188,979.06201 C 124.92745,979.76682 123.69403,979.06201 121.051,981.35264 C 118.40796,983.64328 115.06126,983.67257 114.97201,988.13644 C 114.88277,992.6003 114.88391,997.38706 112.76949,1000.9111 C 110.65506,1004.4351 109.77405,1003.9065 110.30265,1001.4397 C 110.83126,998.97288 110.74316,992.45339 110.39075,990.69137 C 110.03835,988.92935 111.35987,982.67416 113.6505,980.91214 C 115.94113,979.15011 120.16999,976.59518 120.16999,976.59518 C 120.16999,976.59518 113.20999,976.94759 110.74316,977.6524 C 108.27633,978.35721 105.01659,980.64784 104.13558,983.46708 C 103.25457,986.28631 101.40444,990.77947 99.466214,992.01288 C 97.527988,993.2463 95.428358,994.4707 96.646976,992.27719 C 97.865594,990.08368 98.761404,987.69593 99.025708,985.2291 C 99.307906,982.59527 101.14014,978.70961 103.43077,977.29999 C 105.7214,975.89037 109.77405,973.59974 109.77405,973.59974 C 109.77405,973.59974 103.34267,971.39721 100.96393,971.13291 C 98.914152,970.90516 91.801412,969.01848 91.272805,972.01392 C 90.744198,975.00936 88.982175,981.61694 87.572556,983.11467 C 86.164235,984.61102 82.110284,986.99112 83.343701,983.99568 C 84.577117,981.00024 86.427242,973.77594 86.427242,971.83772 C 86.427242,969.89949 84.400914,970.78051 82.991296,971.66152 C 81.581677,972.54253 76.031304,977.5643 75.855102,982.14556 C 75.678899,986.72682 75.150292,986.02201 74.445483,983.64328 C 73.764632,981.3454 73.212067,974.04025 76.912315,971.57342 C 80.612564,969.10659 88.536157,960.97694 108.71165,967.19599 C 128.9219,973.42575 137.50835,964.19573 138.43456,955.42219 C 139.36077,946.64865 140.08085,915.27677 139.90465,909.8145 C 139.72845,904.35223 137.79022,897.83274 135.14718,893.07528 C 132.50415,888.31782 127.74669,881.79833 125.10365,881.62213 C 122.46062,881.44593 118.40796,883.03175 118.44836,883.03544 C 122.15435,884.89827 124.25054,891.20271 119.49544,895.76174 C 114.69612,900.36318 110.34843,899.14145 103.16372,900.98064 C 103.03314,896.16264 98.964516,885.88296 103.39519,880.9815 C 107.82087,876.08556 113.22192,878.5626 116.12148,881.41941 C 117.39425,879.67948 119.6326,878.70449 121.57961,878.36238 C 118.29368,876.46285 106.95498,872.16145 103.8499,871.89008 C 100.7496,871.61912 98.948321,871.81105 94.518207,876.63428 C 98.356347,878.67331 99.229814,886.09284 95.884328,890.03516 C 92.495179,894.02894 87.442128,896.32221 80.257418,898.1614 C 78.717219,893.5196 74.961955,881.60927 78.550662,877.63366 C 82.09533,873.70683 87.672583,874.24564 91.188851,875.60473 C 92.94702,872.94702 94.275873,871.80689 97.183211,869.95677 C 88.438953,870.34755 79.018948,871.08535 72.553287,874.45299 C 74.622303,877.96433 74.084499,884.96358 67.119383,886.63041 C 60.237567,888.27731 54.82329,883.58725 49.586519,882.72276 C 51.287869,878.01797 54.949034,865.89292 61.379115,865.17517 C 67.798894,864.45858 70.31677,867.895 71.296279,871.84587 C 76.768878,868.18439 84.608761,866.5787 93.13391,867.4026 C 90.988145,865.87885 88.966974,864.4797 87.631069,862.0838 C 84.460552,865.51196 77.734453,865.43701 75.103043,861.8121 C 72.429577,858.12925 74.991926,849.44483 74.41122,843.79351 C 79.431013,845.70068 88.896503,843.34431 93.395799,848.64693 C 97.85148,853.89816 93.893702,859.11215 89.907888,860.67154 C 98.972964,871.03367 104.7783,866.24239 117.36742,872.55186 L 115.27463,867.58896 C 110.10353,867.17708 105.58429,866.11721 105.74782,859.53169 C 105.91284,852.88494 113.64769,849.19172 115.0729,844.6753 C 116.7975,848.70781 126.8385,851.81648 127.14647,858.41651 C 127.4541,865.00909 123.46151,866.70321 119.39106,866.71806 C 120.84713,872.86582 121.68649,874.16801 127.45952,878.55375 C 126.75349,876.64331 125.6045,873.80378 125.34142,872.82243 L 125.59061,870.33055 L 129.66571,872.1932 C 129.80415,873.81451 132.2674,879.36307 135.05974,883.16372 C 137.88265,887.00598 139.87737,892.21754 142.28619,896.74445 C 137.75235,878.18367 131.73318,863.18563 127.61016,852.85148 C 123.51743,842.59329 119.64636,839.81976 111.04514,838.54273 C 111.77119,842.5541 109.62849,850.04996 101.60454,848.53653 C 93.596183,847.02605 92.218588,840.55748 85.875336,839.41529 C 90.011521,838.52394 94.750461,826.74936 101.34367,827.17915 C 107.92946,827.60845 109.958,831.61825 110.13565,835.40067 C 112.80499,836.03619 115.25178,835.92336 118.14366,837.30724 C 113.36072,830.65154 105.77105,823.54424 102.90216,821.00853 C 100.07656,818.51108 98.585201,819.77511 94.101999,819.50467 C 95.504358,826.74404 92.041163,831.03067 85.454279,830.93751 C 78.80613,830.8435 74.630371,826.48018 67.959256,824.68271 C 72.218629,823.45136 75.558054,810.54889 81.90328,809.02058 C 88.227904,807.49722 91.038722,811.55574 92.947185,815.802 C 95.002726,815.65802 97.182711,815.2195 99.113809,815.37005 C 97.629281,813.09164 97.025763,810.63704 96.774651,808.00623 C 91.829938,808.30934 85.593006,807.54302 84.419601,801.06083 C 83.235273,794.51835 89.474673,794.12412 90.412882,783.50705 C 94.148719,786.5884 105.6699,788.69948 107.30796,795.10041 C 108.94418,801.49413 104.33624,805.86129 100.35312,806.70009 C 100.23369,811.91008 102.32769,816.16158 110.03835,823.38726 C 110.09709,820.56802 109.89152,816.69158 111.18367,814.13664 C 112.38772,814.37158 113.23936,814.78271 114.44341,815.01765 C 113.50367,817.89562 113.16574,821.38034 113.2981,823.03485 C 113.41676,824.51817 113.26766,825.52076 114.26721,826.647 C 115.30975,827.82168 122.07884,837.16041 125.98466,842.41711 C 126.02741,840.36875 125.89397,838.40848 126.37722,836.27202 C 122.75753,833.9846 118.7219,831.28672 121.32354,825.23468 C 123.94938,819.12635 130.5438,818.82085 133.35958,814.94305 C 134.47704,819.85757 141.431,827.50019 140.23793,832.39298 C 139.04009,837.30535 134.06983,839.1561 130.28599,837.65565 C 130.20309,839.88888 129.47674,841.60885 129.2444,843.03382 C 129.02605,844.37304 129.27377,845.76495 129.94922,847.26267 C 130.65784,848.83395 139.58162,868.49505 143.6049,882.67934 C 143.4287,873.66365 143.01756,856.76292 143.07629,855.63228 C 142.01359,853.31788 140.80619,851.45218 139.19984,849.5533 C 139.17915,848.41578 139.34667,844.0323 139.37604,842.85762 C 141.1087,844.23787 143.28185,846.49913 144.66211,848.49609 L 144.66211,826.3827 C 144.66211,823.48023 142.34253,821.96487 141.49046,820.92042 C 140.68078,819.92793 134.61689,813.74719 130.5634,809.54387 C 128.50664,814.83475 118.31046,815.13354 115.77626,810.70753 C 113.26352,806.31901 113.89523,800.28939 113.51839,792.1594 C 118.94054,793.05945 127.0819,792.51057 131.00617,796.40873 C 134.97455,800.3507 133.8872,803.79078 132.85863,807.43456 C 136.93996,811.92985 140.92085,815.19172 145.00218,819.68701 L 145.09028,802.86076 C 141.14804,803.81508 133.25806,800.32727 134.69598,792.02908 C 136.11908,783.81642 145.32281,780.73494 147.10125,775.83789 z "
       style="color:#000000;fill:#316318;fill-opacity:1;fill-rule:evenodd;stroke:#000000;stroke-width:1.41732287;stroke-linecap:butt;stroke-linejoin:miter;marker:none;marker-start:none;marker-mid:none;marker-end:none;stroke-miterlimit:4;stroke-dasharray:none;stroke-dashoffset:0;stroke-opacity:1;visibility:visible;display:inline;overflow:visible;enable-background:accumulate"
       id="path3229" />
  </g>
</svg>

<svg xmlns="http://www.w3.org/2000/svg" version="1.0" width="225.133" height="263.708"><path d="m34.947 762.048 4.055 170.325c2.896 121.661 211.99 121.661 214.886 0l4.055-170.325H34.947z" style="fill:#fff;fill-opacity:1;fill-rule:evenodd;stroke:#000;stroke-width:2.13733602;stroke-linecap:butt;stroke-miterlimit:4;stroke-dashoffset:0;stroke-opacity:1" transform="translate(-33.878 -760.98)"/><path d="M147.101 775.838c1.779 4.897 10.11 7.75 11.533 15.963 1.438 8.298-4.957 12.285-9.522 10.707l.088 16.827c2.337-5.99 6.443-10.125 12.144-12.253-1.029-3.644-2.197-7.75 2.102-12.52 4.298-4.771 14.806.263 20.228-.637-1.872 4.018-1.43 11.547-5.248 16.43-3.926 5.02-13.353 3.878-15.41-1.413-5.548 2.584-9.868 9.263-10.678 10.255-.852 1.045-2.798 3.93-2.798 6.833v22.114c1.38-1.997 3.554-4.259 5.286-5.639.03 1.175.197 5.558.177 6.696-1.607 1.899-2.814 3.764-3.877 6.079.059 1.13-.352 18.031-.528 27.047 4.023-14.184 12.242-34.198 12.95-35.77.676-1.497 1.628-2.536 1.41-3.876-.232-1.425-1.663-3.497-1.746-5.73-3.784 1.5-8.754-.35-9.952-5.263-1.193-4.893 5.76-12.535 6.878-17.45 2.816 3.878 9.41 4.184 12.036 10.292 2.602 6.052-1.434 8.75-5.054 11.037.484 2.137.35 4.097.393 6.145 3.906-5.256 10.632-14.243 11.675-15.417 1-1.127 1.1-2.254 1.218-3.737.132-1.655-.33-5.015-1.27-7.893 1.204-.235 2.679-.646 3.883-.88 1.292 2.554 1.086 6.43 1.145 9.25 7.71-7.226 8.924-11.654 8.804-16.864-3.983-.838-8.59-5.205-6.954-11.6 1.638-6.4 13.159-8.511 16.895-11.593.938 10.618 7.177 11.012 5.993 17.554-1.174 6.482-7.41 7.249-12.355 6.946-.251 2.63-.855 5.437-2.34 7.716 1.932-.15 4.288-.24 6.344-.097 1.908-4.246 4.719-8.305 11.043-6.781 6.346 1.528 9.685 14.43 13.944 15.662-6.67 1.797-10.846 6.16-17.495 6.255-6.586.093-10.05-4.194-8.647-11.433-4.484.27-5.622-1.346-8.448 1.151-2.869 2.536-11.163 10.348-15.946 17.004 2.892-1.384 5.523-1.52 8.193-2.156.177-3.782 2.206-7.792 8.792-8.221 6.593-.43 11.332 11.344 15.468 12.236-6.343 1.142-7.72 7.61-15.73 9.12-8.023 1.514-10.166-5.981-9.44-9.993-8.601 1.277-12.305 4.3-16.397 14.558-4.123 10.334-10.143 24.98-14.677 43.54 2.41-4.526 5.109-9.385 7.932-13.228 2.792-3.8 5.049-9.008 5.394-10.97l4.075-1.49.25 2.119c-.777 1.156-1.413 3.82-2.119 5.731 5.773-4.385 6.612-5.688 8.068-11.835-4.07-.015-8.063-1.71-7.755-8.302.308-6.6 10.349-9.709 12.074-13.741 1.425 4.516 9.16 8.21 9.325 14.856.163 6.586-4.356 7.646-9.527 8.058l-2.093 4.962c12.59-6.309 18.395-1.518 27.46-11.88-3.986-1.56-7.944-6.773-3.488-12.024 4.499-5.303 13.964-2.947 18.984-4.854-.58 5.651 1.982 14.336-.692 18.019-2.63 3.625-9.357 3.7-12.528.271-1.335 2.396-3.357 3.795-5.502 5.32 8.525-.825 16.365.781 21.837 4.442.98-3.95 3.498-7.387 9.917-6.67 6.43.718 10.092 12.843 11.793 17.547-5.237.865-10.651 5.555-17.533 3.908-6.965-1.667-7.503-8.666-5.434-12.177-6.465-3.368-15.885-4.106-24.63-4.497 2.908 1.85 4.236 2.99 5.995 5.648 3.516-1.359 9.093-1.898 12.638 2.03 3.589 3.975-.167 15.885-1.707 20.527-7.185-1.84-12.238-4.132-15.627-8.126-3.345-3.943-2.472-11.362 1.366-13.401-4.43-4.823-6.231-5.015-9.331-4.744-3.105.271-14.444 4.572-17.73 6.472 1.947.342 4.185 1.317 5.458 3.057 2.9-2.857 8.3-5.334 12.726-.438 4.431 4.902.362 15.181.232 20-7.185-1.84-11.533-.618-16.332-5.22-4.755-4.559-2.659-10.863 1.047-12.726.04-.004-4.012-1.59-6.655-1.413-2.643.176-7.4 6.695-10.044 11.453-2.643 4.757-4.581 11.277-4.757 16.74-.176 5.461.793 37.082 1.72 45.856.925 8.774 9.512 18.004 29.722 11.774 20.176-6.22 27.476 1.661 31.176 4.128 3.7 2.467 3.148 9.772 2.467 12.07-.705 2.379-1.233 3.083-1.41-1.498-.176-4.581-5.352-9.603-6.762-10.484-1.41-.88-3.436-1.762-3.436.176 0 1.939 1.85 9.163 3.084 12.158 1.233 2.996-2.82.616-4.23-.88-1.409-1.498-3.17-8.106-3.7-11.101-.528-2.996-7.64-1.11-9.69-.881-2.38.264-8.81 2.466-8.81 2.466s3.803 2.416 6.094 3.825c2.29 1.41 4.122 5.295 4.405 7.93.264 2.466 1.16 4.854 2.378 7.047 1.219 2.194-.88.97-2.819-.264-1.938-1.233-3.788-5.726-4.67-8.546-.88-2.819-3.89-5.234-6.358-5.939-2.466-.705-9.426-1.057-9.426-1.057s4.228 2.555 6.519 4.317c2.29 1.762 3.238 7.892 2.886 9.654-.352 1.762-.44 8.282.088 10.749.529 2.466-.352 2.995-2.467-.529-2.114-3.524-2.113-8.31-2.202-12.775-.09-4.463-3.062-4.368-5.706-6.659-2.643-2.29-3.876-1.586-5.99-2.29-2.115-.705-6.344-3.172-8.634-4.758-2.29-1.586-5.463-4.053-5.463-4.053s2.115 3.084 5.287 6.608c3.171 3.524 1.145 8.898-.97 11.718-2.114 2.819-3.171 8.37-2.29 10.307.88 1.939 1.29 5.958.793 8.194-.529 2.379-1.322.705-1.586-1.762-.282-2.634-1.674-4.582-2.555-7.577-.881-2.995-.705-6.696 1.938-11.189 2.64-4.487.793-6.784-.617-7.665-1.41-.88-1.456-1.674-5.963-7.048-4.506 5.727-4.553 6.52-5.963 7.4-1.41.882-3.256 3.178-.617 7.666 2.643 4.493 2.82 8.193 1.939 11.188-.881 2.996-2.273 4.943-2.555 7.577-.265 2.467-1.058 4.14-1.586 1.762-.497-2.236-.088-6.255.793-8.193.88-1.938-.176-7.489-2.29-10.308-2.115-2.82-4.142-8.193-.97-11.718 3.172-3.524 5.286-6.607 5.286-6.607s-3.172 2.467-5.462 4.053c-2.29 1.585-6.52 4.052-8.634 4.757-2.115.705-3.348 0-5.991 2.29-2.643 2.291-5.99 2.32-6.079 6.784-.09 4.464-.088 9.251-2.203 12.775-2.114 3.524-2.995 2.996-2.466.529.528-2.467.44-8.987.088-10.749-.353-1.762.969-8.017 3.26-9.779 2.29-1.762 6.519-4.317 6.519-4.317s-6.96.353-9.427 1.057c-2.467.705-5.726 2.996-6.607 5.815-.881 2.82-2.732 7.312-4.67 8.546-1.938 1.233-4.038 2.458-2.819.264 1.219-2.193 2.114-4.581 2.379-7.048.282-2.634 2.114-6.52 4.405-7.929 2.29-1.41 6.343-3.7 6.343-3.7s-6.431-2.203-8.81-2.467c-2.05-.228-9.163-2.115-9.691.88-.529 2.996-2.29 9.604-3.7 11.102-1.409 1.496-5.463 3.876-4.23.88 1.234-2.995 3.084-10.22 3.084-12.157 0-1.939-2.026-1.057-3.436-.176-1.41.88-6.96 5.902-7.136 10.484-.176 4.58-.705 3.876-1.41 1.497-.68-2.298-1.233-9.603 2.467-12.07 3.7-2.466 11.624-10.596 31.8-4.377 20.21 6.23 28.796-3 29.723-11.774.926-8.773 1.646-40.145 1.47-45.608-.177-5.462-2.115-11.981-4.758-16.739-2.643-4.757-7.4-11.277-10.043-11.453-2.643-.176-6.696 1.41-6.656 1.413 3.706 1.863 5.803 8.168 1.047 12.727-4.799 4.601-9.147 3.38-16.331 5.219-.13-4.818-4.2-15.098.231-20 4.426-4.895 9.827-2.418 12.726.438 1.273-1.74 3.512-2.715 5.459-3.057-3.286-1.9-14.625-6.2-17.73-6.472-3.1-.27-4.902-.079-9.332 4.744 3.838 2.04 4.712 9.459 1.366 13.401-3.389 3.994-8.442 6.287-15.627 8.126-1.54-4.641-5.295-16.552-1.706-20.527 3.544-3.927 9.122-3.388 12.638-2.03 1.758-2.657 3.087-3.797 5.994-5.647-8.744.39-18.164 1.128-24.63 4.496 2.07 3.511 1.531 10.51-5.434 12.177-6.881 1.647-12.296-3.043-17.532-3.907 1.7-4.705 5.362-16.83 11.792-17.548 6.42-.716 8.938 2.72 9.917 6.67 5.473-3.66 13.313-5.266 21.838-4.442-2.146-1.524-4.167-2.923-5.503-5.32-3.17 3.429-9.897 3.354-12.528-.27-2.673-3.684-.111-12.368-.692-18.02 5.02 1.908 14.486-.449 18.985 4.854 4.455 5.251.498 10.465-3.488 12.025 9.065 10.362 14.87 5.57 27.46 11.88l-2.093-4.963c-5.171-.412-9.69-1.472-9.527-8.057.165-6.647 7.9-10.34 9.325-14.857 1.725 4.033 11.766 7.141 12.073 13.742.308 6.592-3.684 8.286-7.755 8.301 1.456 6.148 2.295 7.45 8.069 11.836-.707-1.91-1.855-4.75-2.119-5.732l.25-2.491 4.075 1.862c.138 1.622 2.601 7.17 5.394 10.97 2.823 3.843 4.817 9.055 7.226 13.581-4.534-18.56-10.553-33.558-14.676-43.893-4.093-10.258-7.964-13.031-16.565-14.308.726 4.011-1.417 11.507-9.44 9.994-8.009-1.51-9.386-7.98-15.73-9.122 4.137-.891 8.875-12.666 15.469-12.236 6.585.43 8.614 4.44 8.792 8.222 2.669.635 5.116.522 8.008 1.906-4.783-6.655-12.373-13.763-15.242-16.298-2.825-2.498-4.317-1.234-8.8-1.504 1.402 7.239-2.06 11.526-8.648 11.433-6.648-.095-10.824-4.458-17.495-6.255 4.26-1.232 7.6-14.134 13.944-15.662 6.325-1.524 9.136 2.535 11.044 6.781 2.056-.144 4.236-.582 6.167-.432-1.485-2.278-2.088-4.733-2.34-7.364-4.944.303-11.181-.463-12.354-6.945-1.185-6.543 5.055-6.937 5.993-17.554 3.736 3.081 15.257 5.192 16.895 11.593 1.636 6.394-2.972 10.761-6.955 11.6-.12 5.21 1.975 9.462 9.685 16.687.06-2.819-.146-6.695 1.146-9.25 1.204.235 2.055.646 3.26.88-.94 2.879-1.278 6.363-1.146 8.018.119 1.483-.03 2.486.97 3.612 1.042 1.175 7.81 10.513 11.717 15.77.042-2.048-.091-4.009.392-6.145-3.62-2.287-7.655-4.985-5.053-11.037 2.625-6.109 9.22-6.414 12.036-10.292 1.117 4.915 8.071 12.557 6.878 17.45-1.198 4.912-6.168 6.763-9.952 5.263-.083 2.233-.81 3.953-1.042 5.378-.218 1.339.03 2.731.705 4.229.709 1.57 9.633 21.232 13.656 35.416-.176-9.015-.587-25.916-.529-27.047-1.062-2.314-2.27-4.18-3.876-6.079-.02-1.137.147-5.52.176-6.695 1.733 1.38 3.906 3.641 5.286 5.638v-22.113c0-2.903-2.32-4.418-3.172-5.463-.81-.992-6.873-7.173-10.927-11.376-2.056 5.29-12.253 5.59-14.787 1.164-2.512-4.389-1.88-10.419-2.258-18.549 5.423.9 13.564.352 17.488 4.25 3.969 3.942 2.881 7.382 1.853 11.026 4.081 4.495 8.062 7.757 12.143 12.252l.088-16.826c-3.942.954-11.832-2.534-10.394-10.832 1.423-8.213 10.627-11.294 12.405-16.191z" style="color:#000;fill:#316318;fill-opacity:1;fill-rule:evenodd;stroke:#000;stroke-width:1.41732287;stroke-linecap:butt;stroke-linejoin:miter;marker:none;marker-start:none;marker-mid:none;marker-end:none;stroke-miterlimit:4;stroke-dasharray:none;stroke-dashoffset:0;stroke-opacity:1;visibility:visible;display:inline;overflow:visible;enable-background:accumulate" transform="translate(-33.878 -760.98)"/></svg>
